web/workspace/public/assets/icons/backspace.svg

<svg height="30" viewBox="0 0 30 30" width="30" xmlns="http://www.w3.org/2000/svg"><path d="m10 5-10 10 10 10h20v-20zm18 18h-17.171l-8-8 8-8h17.171zm-12.6-2 4.6-4.6 4.6 4.6 1.4-1.4-4.6-4.6 4.6-4.6-1.4-1.4-4.6 4.6-4.6-4.6-1.4 1.4 4.6 4.6-4.6 4.6z"/></svg>

<svg xmlns="http://www.w3.org/2000/svg" width="30" height="30" viewBox="0 0 30 30"><path d="M10 5L0 15l10 10h20V5H10zm18 18H10.829l-8-8 8-8H28v16zm-12.6-2l4.6-4.6 4.6 4.6 1.4-1.4-4.6-4.6 4.6-4.6L24.6 9 20 13.6 15.4 9 14 10.4l4.6 4.6-4.6 4.6 1.4 1.4z"/></svg>
